X: 2
M: C|
L: 1/8
P: AABB ad lib.
Q: 1/2=72 "Crisply"
K: F
V: 1
"A"|:\
f2e>g f2c2 | f2e>g f2c2 | f>g f>g (Tg3f/g/) | a2 f4 ", "a2 |\
c'2f>a g2c>f |
d2B>d G2d>g |\
e2c>e d2=B2 | c8 "B":: g2d>f e2c>e | g2d>f e2c2 |\
fcdc BAGF |
E2 G4 ", "Gc |\
V: 2
|:\
|:\
E2G2 G2A2 | =B2B>d c2E2 | F3A GFED | C2EF G2CE |
V: 3 clef=bass middle=d
|:\
"F"F2"C"c2 "F"f2"C"e2 | "Dm"d2"C"c2 "F"f2 "C"e2 | "Dm"d2"F"A2 "Gm"B2"C"c2 | "F"f2 F4 ", "G>A |
"F"A>G A>F "C"c2"F"A2 | "Bb"B4 "G"=B2G2 | "C"c2E2 "Dm"F2"G"G2 | "C"C8 :|
|:\
"C"c'2"G"=b2 "C"c'2"Am"a2 | "G"g2G2 "C"c2c'2 | "F"a2f2 "Gm"b2B2 | "C"c2cd ed ec |
"F"f2fg ag af | "Bb"ba "Gm"bg "C"c'c ec | "F"f2A2 "Gm"B2"C"c2 | "F"F8 :|
punctuated by bringing the feet together and pausing slightly before moving into the next phrase.


